Pods/ProtonCore-UIFoundations/libraries/UIFoundations/Sources/Assets.xcassets/Images/IconSet/ic-phone.imageset/ic-phone.svg

<svg width="24" height="24" viewBox="0 0 24 24" fill="none" xmlns="http://www.w3.org/2000/svg">
<path fill-rule="evenodd" clip-rule="evenodd" d="M5.4965 3.00303L5.4965 3.00304L3.81302 4.68654C3.14533 5.35425 2.88612 6.18445 3.04746 6.89398C4.54919 13.4982 10.5018 19.4508 17.1061 20.9525C17.8156 21.1139 18.6458 20.8547 19.3136 20.1869L20.997 18.5035L20.9989 18.5014L20.9994 18.5008C20.9994 18.5007 21 18.499 21 18.4962C21 18.4945 20.9998 18.4932 20.9996 18.4924C20.9995 18.4919 20.9994 18.4916 20.9994 18.4915L20.9989 18.491L20.997 18.4888L17.954 15.4459C17.9506 15.4425 17.9453 15.4419 17.9412 15.4444L15.5274 16.936C14.6377 17.4858 13.4868 17.3518 12.7472 16.6122L7.51644 11.3814C6.80259 10.6676 6.65012 9.56631 7.14316 8.68537L8.59277 6.09533C8.59504 6.09128 8.59434 6.08622 8.59105 6.08293L5.51116 3.00304L5.50904 3.00109L5.50849 3.00065L5.50843 3.00062C5.50848 3.00065 5.50851 3.00066 5.50849 3.00065M20.9994 18.4916C20.9994 18.4917 20.9994 18.4916 20.9994 18.4916L20.9994 18.4916ZM5.4965 3.00303L5.49862 3.00109L5.4965 3.00303ZM5.49862 3.00109L5.49917 3.00065L5.49862 3.00109ZM5.49917 3.00065L5.49923 3.00062C5.4992 3.00064 5.49918 3.00064 5.49917 3.00065ZM16.7735 22.4152C9.60654 20.7855 3.21448 14.3935 1.5848 7.22657C1.28618 5.91333 1.80005 4.57821 2.75235 3.62589L4.43583 1.94239C5.02566 1.35254 5.98198 1.35254 6.57182 1.94238L9.65171 5.02227C10.1298 5.50036 10.2319 6.23793 9.90171 6.82792L8.4521 9.41796C8.28699 9.71296 8.33805 10.0817 8.5771 10.3208L13.8079 15.5516C14.0555 15.7992 14.4409 15.8441 14.7389 15.66L17.1527 14.1684C17.7485 13.8002 18.5194 13.8899 19.0147 14.3852L22.0576 17.4282C22.6475 18.018 22.6475 18.9743 22.0576 19.5642L20.3742 21.2476C19.4219 22.1999 18.0868 22.7138 16.7735 22.4152Z" fill="#0C0C14"/>
</svg>

<svg xmlns="http://www.w3.org/2000/svg" width="24" height="24" viewBox="0 0 24 24">
  <g class="ic-phone">
    <path fill-rule="evenodd" d="M5.497 3.003 3.813 4.687c-.668.667-.927 1.497-.766 2.207 1.502 6.604 7.455 12.557 14.06 14.059.709.16 1.539-.098 2.207-.766l1.683-1.684.002-.002.001-.005v-.004l-.001-.001-.002-.002-3.043-3.043a.01.01 0 0 0-.013-.002l-2.414 1.492c-.89.55-2.04.416-2.78-.324l-5.23-5.23a2.255 2.255 0 0 1-.374-2.697l1.45-2.59a.01.01 0 0 0-.002-.012l-3.08-3.08-.002-.002m15.49 15.49ZM5.497 3.004l.002-.002Zm.002-.002Zm0 0Zm11.274 19.414C9.607 20.785 3.214 14.394 1.585 7.227c-.299-1.314.215-2.649 1.167-3.601l1.684-1.684a1.51 1.51 0 0 1 2.136 0l3.08 3.08a1.51 1.51 0 0 1 .25 1.806l-1.45 2.59a.755.755 0 0 0 .125.903l5.23 5.23a.755.755 0 0 0 .932.109l2.414-1.492a1.51 1.51 0 0 1 1.862.217l3.043 3.043c.59.59.59 1.546 0 2.136l-1.684 1.684c-.952.952-2.287 1.466-3.6 1.167Z" class="Icon"/>
  </g>
</svg>
